X:1
T:Safe in the Shepherd’s Care
T:Safe in the Shepherd’s Care
T:Charles Edward Pollock
T:Eliza Edmunds Hewitt, 1904
T:Public Domain Courtesy of the Cyber Hymnal™
T:Public Domain Courtesy of the Cyber Hymnal™
C:Charles Edward Pollock
Z:Public Domain
Z:Courtesy of the Cyber Hymnal™
%%score ( 1 2 ) ( 3 4 )
L:1/8
Q:1/4=107
M:4/4
K:E
V:1 treble 
V:2 treble 
V:3 bass 
V:4 bass 
V:1
 E[EF] | [EG]>[DF] [EG][FA] [GB]2 [EG][EG] | [DF]>[^^C^E] [DF][EG] [FA]2 [EG][DF] | %3
w: 1.~Though be-|neath the drift- ing snow, Sum- mer|flow’rs have been laid low, I am|
w: 2.~In green|pas- tures I’ll be fed, By the|qui- et wa- ters led, I am|
w: 3.~Through the|val- ley dark and deep, He will|com- fort, He will keep, I am|
 [EG]2 [EG]>[EG] [EG][FA][GB][EG] | [DF]6 E[EF] | [EG]>[DF] [EG][FA] [GB]2 [EG][EG] | %6
w: safe in the ten- der Shep- herd’s|care; Tho’ the|sun- beams hide a- way, On the|
w: safe in the ten- der Shep- herd’s|care; He will|guide me to the fold, Shel- tered|
w: safe in the ten- der Shep- herd’s|care; Hap- py|in His sav- ing grace, Till I|
 [DF]>[^^C^E] [DF][EG] [FA]2 [EG][DF] | [CE]2 [CE]>[CE] [EG][EG][DF][DF] | E6 z2 | %9
w: dark and cloud- y day, I am|safe in the ten- der Shep- herd’s|care.|
w: from the win- t’ry cold, I am|safe in the ten- der Shep- herd’s|care.|
w: see His bless- èd face, I am|safe in the ten- der Shep- herd’s|care.|
"^Refrain" [EB]2 [EB]>[EB] [Ec][Ec][Ec][Ec] | B6 z2 | [EG]2 [EG]>[EG] [EG][DF]E[EG] | [DF]6 E[DF] | %13
w: Safe, in the ten- der Shep- herd’s|care,|Safe on His bo- som He will|bear Those who|
w: ||||
w: ||||
 [EG]>[DF] [EG][DA] [EB]2 [EG][EG] | [DA]>[EG] [DA][EB] !fermata![Ec]4 | %15
w: trust His might- y love, Bear them|to the land a- bove,|
w: ||
w: ||
 [EB]2 [EG]>[EG] [DF][FA][EG][DF] | E6 |] %17
w: Safe in the Shep- herd’s ten- der|care.|
w: ||
w: ||
V:2
 E x | x8 | x8 | x8 | x6 E x | x8 | x8 | x8 | E6 x2 | x8 | (E2 DF E2) x2 | x6 E x | x6 E x | x8 | %14
 x8 | x8 | E6 |] %17
V:3
 [E,G,][E,A,] | [E,B,]>[E,B,] [E,B,][E,B,] [E,E]2 [E,B,][E,B,] | %2
w: ~ ~|~ ~ ~ ~ ~ ~ ~|
 [B,,B,]>[B,,B,] [B,,B,][B,,B,] [B,,B,]2 [B,,B,][B,,B,] | %3
w: ~ ~ ~ ~ ~ ~ ~|
 [E,B,]2 [E,B,]>[E,B,] [E,B,][E,B,][E,B,][E,B,] | [B,,B,]6 [E,G,][E,A,] | %5
w: ~ ~ ~ ~ ~ ~ ~|~ ~ ~|
 [E,B,]>[E,B,] [E,B,][E,B,] [E,E]2 [E,B,][E,B,] | %6
w: ~ ~ ~ ~ ~ ~ ~|
 [B,,B,]>[B,,B,] [B,,B,][B,,B,] [B,,B,]2 [B,,B,][B,,A,] | %7
w: ~ ~ ~ ~ ~ ~ ~|
 [C,G,]2 [C,G,]>[C,G,] [B,,B,][B,,B,][B,,A,][B,,A,] | [E,G,]6 z2 | %9
w: ~ ~ ~ ~ ~ ~ ~|~|
 [E,G,]2 [E,G,]>[E,G,] [A,,A,][A,,A,][A,,A,][A,,A,] | [E,G,]2 [B,,F,][B,,A,] [E,G,]2 z2 | %11
w: ~ ~ ~ ~ ~ ~ ~|~ In His care;|
 [E,B,]2 [E,B,]>[E,B,] [E,B,][F,B,][G,B,][E,B,] | [B,,B,]2 B,>B, B,2 [G,B,][F,B,] | %13
w: ~ ~ ~ ~ ~ ~ ~|~ He will bear * *|
 [E,B,]>[B,,B,] [E,B,][F,B,] [G,B,]2 [E,B,][E,B,] | [F,B,]>[E,B,] [F,B,][G,B,] A,4 | %15
w: ||
 [G,B,]2 [E,B,]>[E,B,] [B,,B,][B,,B,][B,,B,][B,,A,] | [E,G,]6 |] %17
w: ||
V:4
 x2 | x8 | x8 | x8 | x8 | x8 | x8 | x8 | x8 | x8 | x8 | x8 | x2 B,>B, (B,A,) x2 | x8 | x4 A,4 | %15
 x8 | x6 |] %17

